resources/haticons/SVG/mail.svg

<!-- Generated by IcoMoon.io -->
<svg version="1.1" xmlns="http://www.w3.org/2000/svg" width="24" height="24" viewBox="0 0 24 24">
<title>mail</title>
<path d="M19.999 0h-15.999c-2.2 0-4.001 1.8-4.001 4v16c0 2.2 1.8 4 4.001 4h15.999c2.202 0 4-1.8 4-4v-16c0-2.2-1.799-4-4.001-4zM6 6h12c0.214 0 0.422 0.046 0.613 0.133l-6.613 7.715-6.613-7.715c0.191-0.087 0.399-0.133 0.613-0.133zM4.5 16.5v-9c0-0.031 0.001-0.063 0.003-0.094l4.398 5.131-4.35 4.35c-0.034-0.125-0.052-0.255-0.052-0.388zM18 18h-12c-0.133 0-0.263-0.018-0.388-0.052l4.268-4.268 2.119 2.473 2.119-2.473 4.268 4.268c-0.125 0.034-0.255 0.052-0.388 0.052zM19.5 16.5c0 0.133-0.018 0.263-0.052 0.388l-4.35-4.35 4.398-5.131c0.002 0.031 0.003 0.062 0.003 0.094v9z"></path>
</svg>

<svg xmlns="http://www.w3.org/2000/svg" width="24" height="24"><path d="M19.999 0H4C1.8 0-.001 1.8-.001 4v16c0 2.2 1.8 4 4.001 4h15.999c2.202 0 4-1.8 4-4V4c0-2.2-1.799-4-4.001-4zM6 6h12c.214 0 .422.046.613.133L12 13.848 5.387 6.133C5.578 6.046 5.786 6 6 6zM4.5 16.5v-9c0-.031.001-.063.003-.094l4.398 5.131-4.35 4.35a1.476 1.476 0 0 1-.052-.388zM18 18H6c-.133 0-.263-.018-.388-.052L9.88 13.68l2.119 2.473 2.119-2.473 4.268 4.268a1.476 1.476 0 0 1-.388.052zm1.5-1.5c0 .133-.018.263-.052.388l-4.35-4.35 4.398-5.131c.002.031.003.062.003.094v9z"/></svg>
